X: 1101
T: Amhrán Ar Earraigh
R: jig
M: 6/8
K: Cmajor
|"C"c2 G GAc|"Cmaj7"cdG Gcd|"C/maj6"deG efe|"F"~dcA "G"GAc|
"C"cGG GAc|"Cmaj7"cdG Ggf|"F"dec Afe|"F"ded "G"c2 G|
"C"cGG GAc|"Cmaj7"cdG Gcd|"C/maj6"deG efe|"C/G"~dcA GAc|
"F"cGA GAc|"C/E"dGc Ggf|"Dm"dec Afe|"G"ded c2 d|

